svg/rocket.svg

<svg xmlns="http://www.w3.org/2000/svg" viewBox="0 0 54 64" enable-background="new 0 0 54 64"><style type="text/css">.st0{fill:#343434;}</style><title>rocket</title><desc>Created with Sketch.</desc><path class="st0" d="M27 20c-4.4 0-8 3.6-8 8s3.6 8 8 8 8-3.6 8-8-3.6-8-8-8zm0 13c-2.8 0-5-2.2-5-5s2.2-5 5-5 5 2.2 5 5-2.2 5-5 5zM42.5 36c.1-7.2-.3-15-1.7-21.2-3-12.6-13.8-14.8-13.8-14.8s-10.9 2.2-13.8 14.8c-1.5 6.3-1.8 14-1.7 21.3-4.7 2.5-8.6 6.2-11.5 10.7v9.2h12.799999999999999c.2 1.9.4 3 .4 3h1.8v5h24v-5h1.7s.2-1.1.4-3h12.899999999999999v-9.2c-2.9-4.5-6.8-8.2-11.5-10.8zm-39.5 17v-5.3c2.2-3.2 5-6 8.3-8.1.1 3.3.3 6.7.6 10 .1 1.2.2 2.3.3 3.4h-9.2zm18.8-47c1.3-1.1 2.7-1.9 4.1-2.5.4-.2.8-.3 1.1-.4.3.1.7.2 1.1.4 1.4.6 2.8 1.4 4.1 2.5 1.5 1.4 2.8 3 3.8 4.9-2.6 1.4-5.7 2.1-9 2.1s-6.5-.8-9-2.2c1-1.9 2.3-3.5 3.8-4.8zm14.2 55h-18v-2h18v2zm2.6-9.9c-.2 1.8-.3 3.4-.5 5h-.4v-.1h-8.7v-14c0-1.1-.9-2-2-2s-2 .9-2 2v14h-9.2c-.2-1.5-.4-3.2-.5-5-.7-7-1-14-.8-20.6.1-5.8.7-10.9 1.6-15 .2-.7.3-1.3.5-1.9 3 1.6 6.6 2.5 10.4 2.5s7.4-.9 10.3-2.4c.2.6.4 1.2.5 1.9 1 4.1 1.5 9.2 1.6 15 .2 6.6-.2 13.6-.8 20.6zm12.4 1.9h-9.3c.1-1.1.2-2.2.3-3.4.3-3.3.5-6.7.6-10 3.3 2.1 6.1 4.9 8.4 8.1v5.3z"/></svg>

<?xml version="1.0" encoding="utf-8"?>
<!-- Generator: Adobe Illustrator 21.0.0, SVG Export Plug-In . SVG Version: 6.00 Build 0)  -->
<svg version="1.1" id="Layer_1" xmlns="http://www.w3.org/2000/svg" xmlns:xlink="http://www.w3.org/1999/xlink" x="0px" y="0px"
	 viewBox="0 0 54 64" style="enable-background:new 0 0 54 64;" xml:space="preserve">
<style type="text/css">
	.st0{fill:#343434;}
</style>
<title>rocket</title>
<desc>Created with Sketch.</desc>
<g>
	<path class="st0" d="M27,20c-4.4,0-8,3.6-8,8c0,4.4,3.6,8,8,8s8-3.6,8-8C35,23.6,31.4,20,27,20z M27,33c-2.8,0-5-2.2-5-5s2.2-5,5-5
		s5,2.2,5,5S29.8,33,27,33z"/>
	<path class="st0" d="M42.5,36c0.1-7.2-0.3-15-1.7-21.2C37.8,2.2,27,0,27,0S16.1,2.2,13.2,14.8c-1.5,6.3-1.8,14-1.7,21.3
		C6.8,38.6,2.9,42.3,0,46.8V56h12.6h0.2c0.2,1.9,0.4,3,0.4,3H15v5h24v-5h1.7c0,0,0.2-1.1,0.4-3h0.2H54v-9.2
		C51.1,42.3,47.2,38.6,42.5,36z M3,53v-5.3c2.2-3.2,5-6,8.3-8.1c0.1,3.3,0.3,6.7,0.6,10c0.1,1.2,0.2,2.3,0.3,3.4H3z M21.8,6
		c1.3-1.1,2.7-1.9,4.1-2.5c0.4-0.2,0.8-0.3,1.1-0.4c0.3,0.1,0.7,0.2,1.1,0.4c1.4,0.6,2.8,1.4,4.1,2.5c1.5,1.4,2.8,3,3.8,4.9
		c-2.6,1.4-5.7,2.1-9,2.1s-6.5-0.8-9-2.2C19,8.9,20.3,7.3,21.8,6z M36,61H18v-2h18V61z M38.6,51.1c-0.2,1.8-0.3,3.4-0.5,5h-0.4V56
		c-1.3,0-4.9,0-8.7,0V42c0-1.1-0.9-2-2-2s-2,0.9-2,2v14c-4.3,0-8.3,0-9.2,0c-0.2-1.5-0.4-3.2-0.5-5c-0.7-7-1-14-0.8-20.6
		c0.1-5.8,0.7-10.9,1.6-15c0.2-0.7,0.3-1.3,0.5-1.9c3,1.6,6.6,2.5,10.4,2.5s7.4-0.9,10.3-2.4c0.2,0.6,0.4,1.2,0.5,1.9
		c1,4.1,1.5,9.2,1.6,15C39.6,37.1,39.2,44.1,38.6,51.1z M51,53h-9.3c0.1-1.1,0.2-2.2,0.3-3.4c0.3-3.3,0.5-6.7,0.6-10
		c3.3,2.1,6.1,4.9,8.4,8.1V53z"/>
</g>
</svg>
